icons/folder-arrow-down-outline.svg

<svg xmlns="http://www.w3.org/2000/svg" width="24" height="24" viewBox="0 0 24 24">
  <path d="M11,4 C11.2652165,4 11.5195704,4.10535684 11.7071068,4.29289322 L11.7071068,4.29289322 L13.415,6 L19,6 C20.5976809,6 21.9036609,7.24891996 21.9949073,8.82372721 L21.9949073,8.82372721 L22,9 L22,17 C22,18.6568542 20.6568542,20 19,20 L19,20 L5,20 C3.34314575,20 2,18.6568542 2,17 L2,17 L2,7 C2,5.34314575 3.34314575,4 5,4 L5,4 Z M10.585,6 L5,6 C4.44771525,6 4,6.44771525 4,7 L4,7 L4,17 C4,17.5522847 4.44771525,18 5,18 L5,18 L19,18 C19.5522847,18 20,17.5522847 20,17 L20,17 L20,9 C20,8.44771525 19.5522847,8 19,8 L19,8 L13,8 C12.7347835,8 12.4804296,7.89464316 12.2928932,7.70710678 L12.2928932,7.70710678 L10.585,6 Z M12,9 C12.5522847,9 13,9.44771525 13,10 L13,10 L13,13.585 L14.2928932,12.2928932 L14.3871006,12.2097046 C14.7793918,11.9046797 15.3466228,11.9324093 15.7071068,12.2928932 C16.0976311,12.6834175 16.0976311,13.3165825 15.7071068,13.7071068 L15.7071068,13.7071068 L12.7071068,16.7071068 L12.625449,16.7803112 C12.6225624,16.7826279 12.6196628,16.7849289 12.6128994,16.7902954 C12.6070733,16.7948255 12.6012086,16.7992821 12.5951593,16.8036865 C12.5711307,16.8215099 12.546275,16.8382813 12.5207088,16.8540045 C12.5086131,16.8613931 12.4963944,16.8685012 12.484277,16.8751242 C12.4642939,16.8862061 12.4438914,16.8966234 12.4232215,16.9063266 L12.4232215,16.9063266 L12.3710585,16.928896 C12.3515792,16.9366843 12.3317977,16.9438775 12.3121425,16.9502619 C12.2968513,16.9552713 12.2814633,16.9599023 12.2658396,16.964279 C12.2444365,16.9701664 12.2227461,16.9753602 12.2007258,16.9797599 C12.1833753,16.9832978 12.165949,16.9863719 12.1489612,16.9889807 L12.1489612,16.9889807 L12.08,16.996 L12.045,16.998 L12.019,16.999 L12,17 C11.9935938,17 11.9872016,16.9999398 11.980824,16.9998198 L11.980824,16.9998198 L11.9409686,16.9982669 C11.9308872,16.9976744 11.9208131,16.99693 11.909968,16.996002 L11.909968,16.996002 L11.8515331,16.9889822 C11.834051,16.9863719 11.8166247,16.9832978 11.7992059,16.9798348 C11.7772539,16.9753602 11.7555635,16.9701664 11.734007,16.9641549 C11.7185367,16.9599023 11.7031487,16.9552713 11.6882636,16.9504533 C11.6682023,16.9438775 11.6484208,16.9366843 11.628664,16.9287745 L11.628664,16.9287745 L11.5769009,16.9063462 C11.5561086,16.8966234 11.5357061,16.8862061 11.5159379,16.8753288 L11.5159379,16.8753288 L11.4793398,16.8539326 C11.453725,16.8382813 11.4288693,16.8215099 11.4046934,16.8036654 L11.4046934,16.8036654 L11.38,16.784 L11.3832499,16.787214 L11.378,16.783 L11.374551,16.7803112 L11.359,16.767 L11.347434,16.757792 L11.347434,16.757792 L11.2928932,16.7071068 L8.29289322,13.7071068 L8.20970461,13.6128994 C7.90467972,13.2206082 7.93240926,12.6533772 8.29289322,12.2928932 C8.68341751,11.9023689 9.31658249,11.9023689 9.70710678,12.2928932 L9.70710678,12.2928932 L11,13.585 L11,10 L11.0067277,9.88337887 C11.0644928,9.38604019 11.4871642,9 12,9 Z"/>
</svg>

<svg xmlns="http://www.w3.org/2000/svg" viewBox="0 0 24 24">
  <path d="M11 4a1 1 0 0 1 .7.3L13.42 6H19a3 3 0 0 1 3 2.82V17a3 3 0 0 1-3 3H5a3 3 0 0 1-3-3V7a3 3 0 0 1 3-3zm-.41 2H5a1 1 0 0 0-1 1v10a1 1 0 0 0 1 1h14a1 1 0 0 0 1-1V9a1 1 0 0 0-1-1h-6a1 1 0 0 1-.7-.3L10.58 6zM12 9a1 1 0 0 1 1 1v3.59l1.3-1.3.09-.08a1 1 0 0 1 1.32 1.5l-3 3-.08.07a3 3 0 0 1-.15.1l-.06.03-.05.02a.95.95 0 0 1-.22.06h-.13L12 17h-.09l-.06-.01a1.1 1.1 0 0 1-.22-.06l-.05-.02a1.04 1.04 0 0 1-.06-.03l-.04-.03a1.03 1.03 0 0 1-.08-.05l-.02-.02-.02-.01-.01-.01-.06-.05-3-3-.08-.1a1 1 0 0 1 1.5-1.32L11 13.6V9.88A1 1 0 0 1 12 9z"/>
</svg>
